packages/sources/assets/src/assets/paymill.svg

<svg width="58" height="40" viewBox="0 0 58 40" fill="none" xmlns="http://www.w3.org/2000/svg">
<rect x="0.5" y="0.5" width="57" height="39" rx="3.5" fill="white" stroke="#F3F3F3"/>
<path fill-rule="evenodd" clip-rule="evenodd" d="M12.8197 19.2641C12.8349 19.298 12.8432 19.3356 12.8432 19.375C12.8432 19.4144 12.8349 19.452 12.8197 19.4859V19.4862L11.4378 22.3708L11.437 22.3715C11.3294 22.5821 11.1423 22.7501 10.8877 22.7501L9.4049 22.7499C9.24419 22.7499 9.11408 22.6241 9.11408 22.4688C9.11408 22.4285 9.12308 22.3907 9.13891 22.356L10.5327 19.5102L10.5325 19.5079C10.5546 19.4683 10.5685 19.4234 10.5685 19.3751C10.5685 19.3267 10.5327 19.2397 10.5327 19.2397L9.13858 16.3943L9.13891 16.3941C9.12308 16.3595 9.11408 16.3214 9.11408 16.2812C9.11408 16.126 9.24426 16.0001 9.4049 16.0001L10.8877 16C11.1423 16 11.3403 16.1681 11.437 16.3785L11.4378 16.3791L12.8197 19.2638V19.2641ZM17.6675 21.3784H16.8973V24.0873H15.6358V16.8999H17.8125C19.3752 16.8999 20.5584 17.6122 20.5584 19.0798C20.5583 20.5799 19.4645 21.3784 17.6675 21.3784ZM17.7121 17.8603H16.8973V20.4181H17.6786C18.806 20.4181 19.286 19.9755 19.286 19.1122C19.2859 18.3352 18.8393 17.8603 17.7121 17.8603ZM21.5095 24.0873H20.2484L23.0836 16.8999H24.3L27.1912 24.0873H25.8182L25.2378 22.5441H22.0901L21.5095 24.0873ZM24.0878 19.5008C23.8646 18.8963 23.6639 18.2598 23.6639 18.2598H23.6414C23.6414 18.2598 23.4517 18.9073 23.2173 19.5008C23.2173 19.5008 22.4583 21.5512 22.4472 21.5512H24.8581L24.0878 19.5008ZM29.6036 24.0873V21.3678L32.0146 16.8999H30.7868L29.0345 20.2346H29.0232L27.2708 16.8999H25.8645L28.3424 21.3678V24.0873H29.6036ZM35.7016 24.0999L34.1947 19.9342C34.0273 19.4488 33.8598 18.9199 33.8598 18.9199H33.8375C33.8375 18.9199 33.7928 19.481 33.7373 19.9668L33.2125 24.0999H32.0628L33.0786 16.9126H34.2953L35.947 21.5532C36.1591 22.1249 36.3601 22.8265 36.3601 22.8265H36.3825C36.3825 22.8265 36.5944 22.1249 36.8066 21.5532L38.4809 16.9126H39.6975L40.7133 24.0999H39.4295L38.8827 19.9451C38.8156 19.4488 38.7599 18.9199 38.7599 18.9199H38.7376C38.7376 18.9199 38.5812 19.4488 38.4138 19.9342L36.9293 24.0999H35.7016ZM41.8656 16.9127V24.0999V24.1H43.1268V16.9127H41.8656ZM44.4838 24.0999V16.9127H45.7449V23.1072H48.5801V24.1H44.4838V24.0999ZM49.9037 16.9127V24.0999V24.1H54V23.1072H51.1651V16.9127H49.9037ZM9.29351 18.5313C9.29351 18.3759 9.16314 18.2501 9.0025 18.2501L7.51981 18.2499C7.30465 18.2499 7.11012 18.3601 7.01639 18.5312L4.02476 24.606C4.00893 24.6405 4 24.6787 4 24.7187C4 24.874 4.13024 24.9997 4.29089 24.9997L5.7735 25C6.0282 25 6.2406 24.7896 6.32369 24.621L9.26921 18.6439H9.26882C9.28445 18.6092 9.29351 18.5714 9.29351 18.5313Z" fill="#F05000"/>
</svg>

<svg width="58" height="40" fill="none" xmlns="http://www.w3.org/2000/svg"><rect x=".5" y=".5" width="57" height="39" rx="3.5" fill="#fff" stroke="#F3F3F3"/><path fill-rule="evenodd" clip-rule="evenodd" d="M12.82 19.264a.27.27 0 0 1 0 .222l-1.382 2.885h-.001c-.108.211-.295.38-.55.38l-1.482-.001a.286.286 0 0 1-.29-.281.27.27 0 0 1 .024-.113l1.394-2.846v-.002a.272.272 0 0 0 .036-.133c0-.048-.036-.135-.036-.135l-1.394-2.846a.27.27 0 0 1-.025-.113c0-.155.13-.28.29-.28L10.889 16c.254 0 .452.168.549.378v.001l1.383 2.885Zm4.848 2.114h-.77v2.71h-1.262V16.9h2.177c1.562 0 2.745.712 2.745 2.18 0 1.5-1.093 2.298-2.89 2.298Zm.044-3.518h-.815v2.558h.782c1.127 0 1.607-.442 1.607-1.306 0-.777-.447-1.252-1.574-1.252Zm3.797 6.227h-1.26l2.835-7.187H24.3l2.891 7.187h-1.373l-.58-1.543H22.09l-.58 1.543Zm2.579-4.586a31.326 31.326 0 0 1-.424-1.241h-.023s-.19.647-.424 1.24c0 0-.759 2.051-.77 2.051h2.411l-.77-2.05Zm5.516 4.586v-2.72l2.41-4.467h-1.227l-1.752 3.335h-.012L27.271 16.9h-1.407l2.478 4.468v2.72h1.262Zm6.098.013-1.507-4.166c-.168-.485-.335-1.014-.335-1.014h-.023s-.044.561-.1 1.047l-.525 4.133h-1.15l1.017-7.187h1.216l1.652 4.64c.212.572.413 1.273.413 1.273h.023s.211-.701.424-1.273l1.674-4.64h1.216l1.016 7.187H39.43l-.546-4.155c-.067-.496-.123-1.025-.123-1.025h-.022s-.157.529-.324 1.014L36.929 24.1h-1.227Zm6.164-7.187V24.1h1.26v-7.187h-1.26Zm2.618 7.187v-7.187h1.26v6.194h2.836v.993h-4.096Zm5.42-7.187V24.1H54v-.993h-2.835v-6.194h-1.261ZM9.294 18.53a.286.286 0 0 0-.292-.28H7.52a.57.57 0 0 0-.504.281l-2.991 6.075a.27.27 0 0 0-.025.113c0 .155.13.28.29.28L5.775 25c.254 0 .467-.21.55-.379l2.945-5.977a.273.273 0 0 0 .025-.113Z" fill="#F05000"/></svg>
